aces_1.0.3/luts/V3_LogC_1600_to_linear.spi1d
Version 1
From 0.000000 1.000000
Length 65536
Components 1
{
         -0.01797747612
         -0.0179745201021
         -0.0179715659469
         -0.0179686099291
         -0.0179656539112
         -0.017962699756
         -0.0179597437382
         -0.017956789583
         -0.0179538335651
         -0.0179508775473
         -0.0179479233921
         -0.0179449673742
         -0.017942013219
         -0.0179390572011
         -0.0179361011833
         -0.0179331470281
         -0.0179301910102
         -0.017927236855
         -0.0179242808372
         -0.0179213248193
         -0.0179183706641
         -0.0179154146463
         -0.0179124604911
         -0.0179095044732
         -0.017906550318
         -0.0179035943002
         -0.0179006382823
         -0.0178976841271
         -0.0178947281092
         -0.017891773954
         -0.0178888179362
         -0.0178858619183
         -0.0178829077631
         -0.0178799517453
         -0.0178769975901
         -0.0178740415722
         -0.0178710855544
         -0.0178681313992
         -0.0178651753813
         -0.0178622212261
         -0.0178592652082
         -0.0178563091904
         -0.0178533550352
         -0.0178503990173
         -0.0178474448621
         -0.0178444888443
         -0.0178415346891
         -0.0178385786712
         -0.0178356226534
         -0.0178326684982
         -0.0178297124803
         -0.0178267583251
         -0.0178238023072
         -0.0178208462894
         -0.0178178921342
         -0.0178149361163
         -0.0178119819611
         -0.0178090259433
         -0.0178060699254
         -0.0178031157702
         -0.0178001597524
         -0.0177972055972
         -0.0177942495793
         -0.0177912935615
         -0.0177883394063
         -0.0177853833884
         -0.0177824292332
         -0.0177794732153
         -0.0177765190601
         -0.0177735630423
         -0.0177706070244
         -0.0177676528692
         -0.0177646968514
         -0.0177617426962
         -0.0177587866783
         -0.0177558306605
         -0.0177528765053
         -0.0177499204874
         -0.0177469663322
         -0.0177440103143
         -0.0177410542965
         -0.0177381001413
         -0.0177351441234
         -0.0177321899682
         -0.0177292339504
         -0.0177262779325
         -0.0177233237773
         -0.0177203677595
         -0.0177174136043
         -0.0177144575864
         -0.0177115034312
         -0.0177085474133
         -0.0177055913955
         -0.0177026372403
         -0.0176996812224
         -0.0176967270672
         -0.0176937710494
         -0.0176908150315
         -0.0176878608763
         -0.0176849048585
         -0.0176819507033
         -0.0176789946854
         -0.0176760386676
         -0.0176730845124
         -0.0176701284945
         -0.0176671743393
         -0.0176642183214
         -0.0176612623036
         -0.0176583081484
         -0.0176553521305
         -0.0176523979753
         -0.0176494419575
         -0.0176464878023
         -0.0176435317844
         -0.0176405757666
         -0.0176376216114
         -0.0176346655935
         -0.0176317114383
         -0.0176287554204
         -0.0176257994026
         -0.0176228452474
         -0.0176198892295
         -0.0176169350743
         -0.0176139790565
         -0.0176110230386
         -0.0176080688834
         -0.0176051128656
         -0.0176021587104
         -0.0175992026925
         -0.0175962466747
         -0.0175932925195
         -0.0175903365016
         -0.0175873823464
         -0.0175844263285
         -0.0175814721733
         -0.0175785161555
         -0.0175755601376
         -0.0175726059824
         -0.0175696499646
         -0.0175666958094
         -0.0175637397915
         -0.0175607837737
         -0.0175578296185
         -0.0175548736006
         -0.0175519194454
         -0.0175489634275
         -0.0175460074097
         -0.0175430532545
         -0.0175400972366
         -0.0175371430814
         -0.0175341870636
         -0.0175312310457
         -0.0175282768905
         -0.0175253208727
         -0.0175223667175
         -0.0175194106996
         -0.0175164565444
         -0.0175135005265
         -0.0175105445087
         -0.0175075903535
         -0.0175046343356
         -0.0175016801804
         -0.0174987241626
         -0.0174957681447
         -0.0174928139895
         -0.0174898579717
         -0.0174869038165
         -0.0174839477986
         -0.0174809917808
         -0.0174780376256
         -0.0174750816077
         -0.0174721274525
         -0.0174691714346
         -0.0174662154168
         -0.0174632612616
         -0.0174603052437
         -0.0174573510885
         -0.0174543950707
         -0.0174514390528
         -0.0174484848976
         -0.0174455288798
         -0.0174425747246
         -0.0174396187067
         -0.0174366645515
         -0.0174337085336
         -0.0174307525158
         -0.0174277983606
         -0.0174248423427
         -0.0174218881875
         -0.0174189321697
         -0.0174159761518
         -0.0174130219966
         -0.0174100659788
         -0.0174071118236
         -0.0174041558057
         -0.0174011997879
         -0.0173982456326
         -0.0173952896148
         -0.0173923354596
         -0.0173893794417
         -0.0173864234239
         -0.0173834692687
         -0.0173805132508
         -0.0173775590956
         -0.0173746030778
         -0.0173716489226
         -0.0173686929047
         -0.0173657368869
         -0.0173627827317
         -0.0173598267138
         -0.0173568725586
         -0.0173539165407
         -0.0173509605229
         -0.0173480063677
         -0.0173450503498
         -0.0173420961946
         -0.0173391401768
         -0.0173361841589
         -0.0173332300037
         -0.0173302739859
         -0.0173273198307
         -0.0173243638128
         -0.017321407795
         -0.0173184536397
         -0.0173154976219
         -0.0173125434667
         -0.0173095874488
         -0.0173066332936
         -0.0173036772758
         -0.0173007212579
         -0.0172977671027
         -0.0172948110849
         -0.0172918569297
         -0.0172889009118
         -0.017285944894
         -0.0172829907387
         -0.0172800347209
         -0.0172770805657
         -0.0172741245478
         -0.01727116853
         -0.0172682143748
         -0.0172652583569
         -0.0172623042017
         -0.0172593481839
         -0.017256392166
         -0.0172534380108
         -0.017250481993
         -0.0172475278378
         -0.0172445718199
         -0.0172416176647
         -0.0172386616468
         -0.017235705629
         -0.0172327514738
         -0.0172297954559
         -0.0172268413007
         -0.0172238852829
         -0.017220929265
         -0.0172179751098
         -0.017215019092
         -0.0172120649368
         -0.0172091089189
         -0.0172061529011
         -0.0172031987458
         -0.017200242728
         -0.0171972885728
         -0.0171943325549
         -0.0171913765371
         -0.0171884223819
         -0.017185466364
         -0.0171825122088
         -0.017179556191
         -0.0171766020358
         -0.0171736460179
         -0.0171706900001
         -0.0171677358449
         -0.017164779827
         -0.0171618256718
         -0.0171588696539
         -0.0171559136361
         -0.0171529594809
         -0.017150003463
         -0.0171470493078
         -0.01714409329
         -0.0171411372721
         -0.0171381831169
         -0.0171352270991
         -0.0171322729439
         -0.017129316926
         -0.0171263609082
         -0.0171234067529
         -0.0171204507351
         -0.0171174965799
         -0.017114540562
         -0.0171115864068
         -0.017108630389
         -0.0171056743711
         -0.0171027202159
         -0.0170997641981
         -0.0170968100429
         -0.017093854025
         -0.0170908980072
         -0.0170879438519
         -0.0170849878341
         -0.0170820336789
         -0.017079077661
         -0.0170761216432
         -0.017073167488
         -0.0170702114701
         -0.0170672573149
         -0.0170643012971
         -0.0170613452792
         -0.017058391124
         -0.0170554351062
         -0.017052480951
         -0.0170495249331
         -0.0170465707779
         -0.01704361476
         -0.0170406587422
         -0.017037704587
         -0.0170347485691
         -0.0170317944139
         -0.0170288383961
         -0.0170258823782
         -0.017022928223
         -0.0170199722052
         -0.01701701805
         -0.0170140620321
         -0.0170111060143
         -0.017008151859
         -0.0170051958412
         -0.017002241686
         -0.0169992856681
         -0.0169963296503
         -0.0169933754951
         -0.0169904194772
         -0.016987465322
         -0.0169845093042
         -0.0169815532863
         -0.0169785991311
         -0.0169756431133
         -0.016972688958
         -0.0169697329402
         -0.016966778785
         -0.0169638227671
         -0.0169608667493
         -0.0169579125941
         -0.0169549565762
         -0.016952002421
         -0.0169490464032
         -0.0169460903853
         -0.0169431362301
         -0.0169401802123
         -0.0169372260571
         -0.0169342700392
         -0.0169313140213
         -0.0169283598661
         -0.0169254038483
         -0.0169224496931
         -0.0169194936752
         -0.0169165376574
         -0.0169135835022
         -0.0169106274843
         -0.0169076733291
         -0.0169047173113
         -0.0169017631561
         -0.0168988071382
         -0.0168958511204
         -0.0168928969651
         -0.0168899409473
         -0.0168869867921
         -0.0168840307742
         -0.0168810747564
         -0.0168781206012
         -0.0168751645833
         -0.0168722104281
         -0.0168692544103
         -0.0168662983924
         -0.0168633442372
         -0.0168603882194
         -0.0168574340641
         -0.0168544780463
         -0.0168515220284
         -0.0168485678732
         -0.0168456118554
         -0.0168426577002
         -0.0168397016823
         -0.0168367475271
         -0.0168337915093
         -0.0168308354914
         -0.0168278813362
         -0.0168249253184
         -0.0168219711632
         -0.0168190151453
         -0.0168160591274
         -0.0168131049722
         -0.0168101489544
         -0.0168071947992
         -0.0168042387813
         -0.0168012827635
         -0.0167983286083
         -0.0167953725904
         -0.0167924184352
         -0.0167894624174
         -0.0167865063995
         -0.0167835522443
         -0.0167805962265
         -0.0167776420712
         -0.0167746860534
         -0.0167717318982
         -0.0167687758803
         -0.0167658198625
         -0.0167628657073
         -0.0167599096894
         -0.0167569555342
         -0.0167539995164
         -0.0167510434985
         -0.0167480893433
         -0.0167451333255
         -0.0167421791703
         -0.0167392231524
         -0.0167362671345
         -0.0167333129793
         -0.0167303569615
         -0.0167274028063
         -0.0167244467884
         -0.0167214907706
         -0.0167185366154
         -0.0167155805975
         -0.0167126264423
         -0.0167096704245
         -0.0167067162693
         -0.0167037602514
         -0.0167008042336
         -0.0166978500783
         -0.0166948940605
         -0.0166919399053
         -0.0166889838874
         -0.0166860278696
         -0.0166830737144
         -0.0166801176965
         -0.0166771635413
         -0.0166742075235
         -0.0166712515056
         -0.0166682973504
         -0.0166653413326
         -0.0166623871773
         -0.0166594311595
         -0.0166564751416
         -0.0166535209864
         -0.0166505649686
         -0.0166476108134
         -0.0166446547955
         -0.0166417006403
         -0.0166387446225
         -0.0166357886046
         -0.0166328344494
         -0.0166298784316
         -0.0166269242764
         -0.0166239682585
         -0.0166210122406
         -0.0166180580854
         -0.0166151020676
         -0.0166121479124
         -0.0166091918945
         -0.0166062358767
         -0.0166032817215
         -0.0166003257036
         -0.0165973715484
         -0.0165944155306
         -0.0165914595127
         -0.0165885053575
         -0.0165855493397
         -0.0165825951844
         -0.0165796391666
         -0.0165766850114
         -0.0165737289935
         -0.0165707729757
         -0.0165678188205
         -0.0165648628026
         -0.0165619086474
         -0.0165589526296
         -0.0165559966117
         -0.0165530424565
         -0.0165500864387
         -0.0165471322834
         -0.0165441762656
         -0.0165412202477
         -0.0165382660925
         -0.0165353100747
         -0.0165323559195
         -0.0165293999016
         -0.0165264438838
         -0.0165234897286
         -0.0165205337107
         -0.0165175795555
         -0.0165146235377
         -0.0165116675198
         -0.0165087133646
         -0.0165057573467
         -0.0165028031915
         -0.0164998471737
         -0.0164968930185
         -0.0164939370006
         -0.0164909809828
         -0.0164880268276
         -0.0164850708097
         -0.0164821166545
         -0.0164791606367
         -0.0164762046188
         -0.0164732504636
         -0.0164702944458
         -0.0164673402905
         -0.0164643842727
         -0.0164614282548
         -0.0164584740996
         -0.0164555180818
         -0.0164525639266
         -0.0164496079087
         -0.0164466518909
         -0.0164436977357
         -0.0164407417178
         -0.0164377875626
         -0.0164348315448
         -0.0164318773896
         -0.0164289213717
         -0.0164259653538
         -0.0164230111986
         -0.0164200551808
         -0.0164171010256
         -0.0164141450077
         -0.0164111889899
         -0.0164082348347
         -0.0164052788168
         -0.0164023246616
         -0.0163993686438
         -0.0163964126259
         -0.0163934584707
         -0.0163905024529
         -0.0163875482976
         -0.0163845922798
         -0.0163816362619
         -0.0163786821067
         -0.0163757260889
         -0.0163727719337
         -0.0163698159158
         -0.0163668617606
         -0.0163639057428
         -0.0163609497249
         -0.0163579955697
         -0.0163550395519
         -0.0163520853966
         -0.0163491293788
         -0.0163461733609
         -0.0163432192057
         -0.0163402631879
         -0.0163373090327
         -0.0163343530148
         -0.016331396997
         -0.0163284428418
         -0.0163254868239
         -0.0163225326687
         -0.0163195766509
         -0.016316620633
         -0.0163136664778
         -0.0163107104599
         -0.0163077563047
         -0.0163048002869
         -0.0163018461317
         -0.0162988901138
         -0.016295934096
         -0.0162929799408
         -0.0162900239229
         -0.0162870697677
         -0.0162841137499
         -0.016281157732
         -0.0162782035768
         -0.016275247559
         -0.0162722934037
         -0.0162693373859
         -0.016266381368
         -0.0162634272128
         -0.016260471195
         -0.0162575170398
         -0.0162545610219
         -0.0162516050041
         -0.0162486508489
         -0.016245694831
         -0.0162427406758
         -0.016239784658
         -0.0162368305027
         -0.0162338744849
         -0.016230918467
         -0.0162279643118
         -0.016225008294
         -0.0162220541388
         -0.0162190981209
         -0.0162161421031
         -0.0162131879479
         -0.01621023193
         -0.0162072777748
         -0.016204321757
         -0.0162013657391
         -0.0161984115839
         -0.016195455566
         -0.0161925014108
         -0.016189545393
         -0.0161865893751
         -0.0161836352199
         -0.0161806792021
         -0.0161777250469
         -0.016174769029
         -0.0161718148738
         -0.016168858856
         -0.0161659028381
         -0.0161629486829
         -0.0161599926651
         -0.0161570385098
         -0.016154082492
         -0.0161511264741
         -0.0161481723189
         -0.0161452163011
         -0.0161422621459
         -0.016139306128
         -0.0161363501102
         -0.016133395955
         -0.0161304399371
         -0.0161274857819
         -0.0161245297641
         -0.0161215737462
         -0.016118619591
         -0.0161156635731
         -0.0161127094179
         -0.0161097534001
         -0.0161067992449
         -0.016103843227
         -0.0161008872092
         -0.016097933054
         -0.0160949770361
         -0.0160920228809
         -0.0160890668631
         -0.0160861108452
         -0.01608315669
         -0.0160802006721
         -0.0160772465169
         -0.0160742904991
         -0.0160713344812
         -0.016068380326
         -0.0160654243082
         -0.016062470153
         -0.0160595141351
         -0.0160565581173
         -0.0160536039621
         -0.0160506479442
         -0.016047693789
         -0.0160447377712
         -0.0160417817533
         -0.0160388275981
         -0.0160358715802
         -0.016032917425
         -0.0160299614072
         -0.016027007252
         -0.0160240512341
         -0.0160210952163
         -0.0160181410611
         -0.0160151850432
         -0.016012230888
         -0.0160092748702
         -0.0160063188523
         -0.0160033646971
         -0.0160004086792
         -0.015997454524
         -0.0159944985062
         -0.0159915424883
         -0.0159885883331
         -0.0159856323153
         -0.0159826781601
         -0.0159797221422
         -0.0159767661244
         -0.0159738119692
         -0.0159708559513
         -0.0159679017961
         -0.0159649457783
         -0.015961991623
         -0.0159590356052
         -0.0159560795873
         -0.0159531254321
         -0.0159501694143
         -0.0159472152591
         -0.0159442592412
         -0.0159413032234
         -0.0159383490682
         -0.0159353930503
         -0.0159324388951
         -0.0159294828773
         -0.0159265268594
         -0.0159235727042
         -0.0159206166863
         -0.0159176625311
         -0.0159147065133
         -0.0159117504954
         -0.0159087963402
         -0.0159058403224
         -0.0159028861672
         -0.0158999301493
         -0.0158969759941
         -0.0158940199763
         -0.0158910639584
         -0.0158881098032
         -0.0158851537853
         -0.0158821996301
         -0.0158792436123
         -0.0158762875944
         -0.0158733334392
         -0.0158703774214
         -0.0158674232662
         -0.0158644672483
         -0.0158615112305
         -0.0158585570753
         -0.0158556010574
         -0.0158526469022
         -0.0158496908844
         -0.0158467348665
         -0.0158437807113
         -0.0158408246934
         -0.0158378705382
         -0.0158349145204
         -0.0158319603652
         -0.0158290043473
         -0.0158260483295
         -0.0158230941743
         -0.0158201381564
         -0.0158171840012
         -0.0158142279834
         -0.0158112719655
         -0.0158083178103
         -0.0158053617924
         -0.0158024076372
         -0.0157994516194
         -0.0157964956015
         -0.0157935414463
         -0.0157905854285
         -0.0157876312733
         -0.0157846752554
         -0.0157817192376
         -0.0157787650824
         -0.0157758090645
         -0.0157728549093
         -0.0157698988914
         -0.0157669447362
         -0.0157639887184
         -0.0157610327005
         -0.0157580785453
         -0.0157551225275
         -0.0157521683723
         -0.0157492123544
         -0.0157462563366
         -0.0157433021814
         -0.0157403461635
         -0.0157373920083
         -0.0157344359905
         -0.0157314799726
         -0.0157285258174
         -0.0157255697995
         -0.0157226156443
         -0.0157196596265
         -0.0157167036086
         -0.0157137494534
         -0.0157107934356
         -0.0157078392804
         -0.0157048832625
         -0.0157019291073
         -0.0156989730895
         -0.0156960170716
         -0.0156930629164
         -0.0156901068985
         -0.0156871527433
         -0.0156841967255
         -0.0156812407076
         -0.0156782865524
         -0.0156753305346
         -0.0156723763794
         -0.0156694203615
         -0.0156664643437
         -0.0156635101885
         -0.0156605541706
         -0.0156576000154
         -0.0156546439976
         -0.0156516879797
         -0.0156487338245
         -0.0156457778066
         -0.0156428236514
         -0.0156398676336
         -0.0156369134784
         -0.0156339574605
         -0.0156310014427
         -0.0156280472875
         -0.0156250912696
         -0.0156221361831
         -0.0156191810966
         -0.01561622601
         -0.0156132709235
         -0.0156103149056
         -0.0156073598191
         -0.0156044047326
         -0.0156014496461
         -0.0155984945595
         -0.0155955385417
         -0.0155925834551
         -0.0155896283686
         -0.0155866732821
         -0.0155837181956
         -0.015580763109
         -0.0155778070912
         -0.0155748520046
         -0.0155718969181
         -0.0155689418316
         -0.0155659867451
         -0.0155630307272
         -0.0155600756407
         -0.0155571205541
         -0.0155541654676
         -0.0155512103811
         -0.0155482552946
         -0.0155452992767
         -0.0155423441902
         -0.0155393891037
         -0.0155364340171
         -0.0155334789306
         -0.0155305229127
         -0.0155275678262
         -0.0155246127397
         -0.0155216576532
         -0.0155187025666
         -0.0155157474801
         -0.0155127914622
         -0.0155098363757
         -0.0155068812892
         -0.0155039262027
         -0.0155009711161
         -0.0154980150983
         -0.0154950600117
         -0.0154921049252
         -0.0154891498387
         -0.0154861947522
         -0.0154832396656
         -0.0154802836478
         -0.0154773285612
         -0.0154743734747
         -0.0154714183882
         -0.0154684633017
         -0.0154655072838
         -0.0154625521973
         -0.0154595971107
         -0.0154566420242
         -0.0154536869377
         -0.0154507318512
         -0.0154477758333
         -0.0154448207468
         -0.0154418656603
         -0.0154389105737
         -0.0154359554872
         -0.0154329994693
         -0.0154300443828
         -0.0154270892963
         -0.0154241342098
         -0.0154211791232
         -0.0154182240367
         -0.0154152680188
         -0.0154123129323
         -0.0154093578458
         -0.0154064027593
         -0.0154034476727
         -0.0154004916549
         -0.0153975365683
         -0.0153945814818
         -0.0153916263953
         -0.0153886713088
         -0.0153857162222
         -0.0153827602044
         -0.0153798051178
         -0.0153768500313
         -0.0153738949448
         -0.0153709398583
         -0.0153679838404
         -0.0153650287539
         -0.0153620736673
         -0.0153591185808
         -0.0153561634943
         -0.0153532074764
         -0.0153502523899
         -0.0153472973034
         -0.0153443422168
         -0.0153413871303
         -0.0153384320438
         -0.0153354760259
         -0.0153325209394
         -0.0153295658529
         -0.0153266107664
         -0.0153236556798
         -0.015320699662
         -0.0153177445754
         -0.0153147894889
         -0.0153118344024
         -0.0153088793159
         -0.0153059242293
         -0.0153029682115
         -0.0153000131249
         -0.0152970580384
         -0.0152941029519
         -0.0152911478654
         -0.0152881918475
         -0.015285236761
         -0.0152822816744
         -0.0152793265879
         -0.0152763715014
         -0.0152734164149
         -0.015270460397
         -0.0152675053105
         -0.0152645502239
         -0.0152615951374
         -0.0152586400509
         -0.015255684033
         -0.0152527289465
         -0.01524977386
